X:1
T:Bay of Biscay Oh
M:4/4
L:1/4
K:F
 C| F C F G| F C2 B| A G A B| c3 A| d c A F| G- F G A| G F G A| G3 F|\
 A B c d| c A2 F| A G c d| c- A F G| A/2- G3/2 A c| d/2- c3/2 G3/2 G/2|\
 A c G A| F2||

